X:1
T:Sherwin, 76.76.76.86
T:Sherwin, 76.76.76.86
T:William Fiske Sherwin, 1869
T:Public Domain Courtesy of the Cyber Hymnal™
C:William Fiske Sherwin, 1869
Z:Public Domain
Z:Courtesy of the Cyber Hymnal™
%%score ( 1 2 ) ( 3 4 )
L:1/8
Q:1/4=110
M:4/4
K:Eb
V:1 treble 
V:2 treble 
V:3 bass 
V:4 bass 
V:1
 [EB]2 [EG]>[DF] E2 [Ec]2 | [EB]4 [EG]4 | [DF]2 [DF]>[DF] [DB]2 [FA]2 | [EG]6 z2 | %4
 [EB]2 [EG]>[DF] E2 [Ec]2 | [EB]4 [EG]4 | F2 [FB]>[Gc] [Fd]2 [Ec]2 | [DB]6 z2 | %8
 [DF]2 [DF]>[EG] [FA]2 [Ac]2 | [GB]4 [EG]2 z2 | [DF]2 [DF]>[EG] [FA]2 [Ac]2 | [GB]6 z2 | %12
 [Ge]2 [Ge]>[Ge] [ce]2 ([Bd][Ac]) | [GB]2 [Ge]2 [GB]4 | [EG]2 [EG]>[EA] [EG]2 [DF]2 | E6 z2 |] %16
V:2
 x4 E2 x2 | x8 | x8 | x8 | x4 E2 x2 | x8 | F2 x6 | x8 | x8 | x8 | x8 | x8 | x8 | x8 | x8 | E6 x2 |] %16
V:3
 [E,G,]2 [E,B,]>[E,A,] [E,G,]2 [A,,A,]2 | [E,G,]4 [E,B,]4 | %2
 [B,,B,]2 [B,,B,]>[B,,B,] [B,,F,]2 [B,,B,]2 | [E,B,]6 z2 | [E,G,]2 [E,B,]>[E,A,] [E,G,]2 [A,,A,]2 | %5
 [E,G,]4 [E,B,]4 | [D,B,]2 [D,B,]>[E,B,] [F,B,]2 [F,=A,]2 | [B,,B,]6 z2 | %8
 [B,,B,]2 [B,,B,]>[B,,B,] [B,,B,]2 [B,,B,]2 | [E,B,]4 [E,B,]2 z2 | %10
 [B,,B,]2 [B,,B,]>[B,,B,] [B,,B,]2 [D,B,]2 | [E,B,]6 z2 | [E,B,]2 [E,B,]>[E,B,] [A,C]2 (DE) | %13
 [E,E]2 [E,B,]2 [E,B,]4 | [B,,B,]2 [B,,B,]>[B,,C] [B,,B,]2 [B,,A,]2 | [E,G,]6 z2 |] %16
V:4
 x8 | x8 | x8 | x8 | x8 | x8 | x8 | x8 | x8 | x8 | x8 | x8 | x6 A,2 | x8 | x8 | x8 |] %16

